symbolic/64x64/apps/tumblr.svg

<svg xmlns="http://www.w3.org/2000/svg" width="64" height="64"><rect style="opacity:.2" width="56" height="56" x="4" y="5" rx="2.8" ry="2.8"/><rect style="fill:#3f5979" width="56" height="56" x="4" y="4" rx="2.8" ry="2.8"/><path style="opacity:.1;fill:#fff" d="M6.8 4C5.25 4 4 5.25 4 6.8v1C4 6.25 5.25 5 6.8 5H57.2A2.796 2.796 0 0 1 60 7.8v-1C60 5.25 58.75 4 57.199 4z"/><path style="opacity:.2" d="M25 30v12c0 1.559 1 9 9 9 6 0 7.897-2.201 7.897-2.201l-1.728-5.375S34 45.771 34 41V30h6v-7h-6l-.085-8H28s.31 4.157-1.686 6.688C24.317 24.219 21 25 21 25v5z"/><path style="fill:#fff" d="M25 29v12c0 1.559 1 9 9 9 6 0 7.897-2.201 7.897-2.201l-1.728-5.375S34 44.771 34 40V29h6v-7h-6l-.085-8H28s.31 4.157-1.686 6.688C24.317 23.219 21 24 21 24v5z"/></svg>

<svg xmlns="http://www.w3.org/2000/svg" width="64" height="64" version="1.1">
 <rect style="opacity:0.2" width="56" height="56" x="4" y="5" rx="2.8" ry="2.8"/>
 <rect style="fill:#3f5979" width="56" height="56" x="4" y="4" rx="2.8" ry="2.8"/>
 <path style="opacity:0.1;fill:#ffffff" d="M 6.8008,4 C 5.2496,4 4,5.2496 4,6.8008 V 7.8008 C 4,6.2496 5.2496,5 6.8008,5 H 57.199 C 58.75,5 60,6.2496 60,7.8008 V 6.8008 C 60,5.2496 58.75,4 57.199,4 Z"/>
 <path style="opacity:0.2" d="M 25,30 V 42 C 25,43.559 26,51 34,51 40,51 41.897,48.799 41.897,48.799 L 40.169,43.424 C 40.169,43.424 34,45.771 34,41 V 30 H 40 V 23 H 34 L 33.915,15 H 28 C 28,15 28.31,19.157 26.314,21.688 24.317,24.219 21,25 21,25 V 30 Z"/>
 <path style="fill:#ffffff" d="M 25,29 V 41 C 25,42.559 26,50 34,50 40,50 41.897,47.799 41.897,47.799 L 40.169,42.424 C 40.169,42.424 34,44.771 34,40 V 29 H 40 V 22 H 34 L 33.915,14 H 28 C 28,14 28.31,18.157 26.314,20.688 24.317,23.219 21,24 21,24 V 29 Z"/>
</svg>
